!!!!SEGMENT: pl-wumfc--r304--001-001_paderewski-ignacy-jan--suite-allegro-molto.krn
!!!cenid: 18xx:3220
!!!COM: Paderewski, Ignacy Jan
!!!COM-rismid: pe30029943
!!!CDT: 1860/11/18-1941/06/29
!!!CNT: Polish
!!!OPR: [Suite]
!!!OTL: Allegro molto
!!!OMV: 001
!!!PDT:
!!!AGN:
!!!SMS-siglum: PL-Wumfc
!!!SMS-shelfmark: R304
!!!SMS-variant:
!!!SMS-altvar:
!!!SMS-shelfwork: 001-001 M
!!!NIFC-rismid: 1001159515
!!!URL-scan: http://repozytorium.nifc.pl/skany/pl-wumfc--r304
!!!ONB-nifc: UWAGA: obsada vl (2), vla, vlc, cb. Skany 0001-0004 (razem z Poco piu lento i odcinkiem na skanie 0003)
!!!OMD: Allegro molto.
!!!key: G
**kern	**dynam	**kern	**dynam	**kern	**dynam	**kern	**dynam	**kern	**dynam
*part5	*part5	*part4	*part4	*part3	*part3	*part2	*part2	*part1	*part1
*staff5	*	*staff4	*	*staff3	*	*staff2	*	*staff1	*
*I"Contrabbasso	*	*I"Cello	*	*I"Viola	*	*I"Violino II	*	*I"Violino I	*
*Icbass	*	*Icello	*	*Iviola	*	*Ivioln	*	*Ivioln	*
*ICstr	*	*ICstr	*	*ICstr	*	*ICstr	*	*ICstr	*
*clefF4	*	*clefF4	*	*clefC3	*	*clefG2	*	*clefG2	*
*Trd0c0	*	*	*	*	*	*	*	*	*
*k[f#]	*	*k[f#]	*	*k[f#]	*	*k[f#]	*	*k[f#]	*
*G:	*	*G:	*	*G:	*	*G:	*	*G:	*
*M4/4	*	*M4/4	*	*M4/4	*	*M4/4	*	*M4/4	*
*met(c)	*	*met(c)	*	*met(c)	*	*met(c)	*	*met(c)	*
=1	=1	=1	=1	=1	=1	=1	=1	=1	=1
*	*	*	*	*Xtuplet	*	*Xtuplet	*	*	*
!!LO:TX:t=P:problem:all\ left or right:global
!	!	!	!	!	!	!	!	!LO:TX:t=P:problem:napisane wg poprawek ołówkowych (konsultacja z EZ)	!
1r	.	[<1GG	.	(12D/L	.	(12d/L	.	4r	.
.	.	.	.	12G/	.	12B/	.	.	.
.	.	.	.	12D/J	.	12d/J	.	.	.
.	.	.	.	12G/L	.	12B/L	.	4g/	.
.	.	.	.	12D/	.	12d/	.	.	.
.	.	.	.	12G/J)	.	12B/J)	.	.	.
.	.	.	.	(12D/L	.	(12d/L	.	4f#/	.
.	.	.	.	12A/	.	12c/	.	.	.
.	.	.	.	12D/J	.	12d/J	.	.	.
.	.	.	.	12D/L	.	12c/L	.	(8e/L	.
.	.	.	.	12A/	.	12d/	.	.	.
.	.	.	.	.	.	.	.	8f#/J	.
.	.	.	.	12D/J)	.	12c/J)	.	.	.
=2	=2	=2	=2	=2	=2	=2	=2	=2	=2
1r	.	1GG]	.	(12G/L	.	(12B/L	.	4d/)	.
.	.	.	.	12D/	.	12d/	.	.	.
.	.	.	.	12G/J	.	12B/J	.	.	.
.	.	.	.	12D/L	.	12d/L	.	(>8g/L	.
.	.	.	.	12G/	.	12B/	.	.	.
.	.	.	.	.	.	.	.	8a/J	.
.	.	.	.	12D/J)	.	12d/J)	.	.	.
.	.	.	.	(12G/L	.	(12B/L	.	4b/	.
.	.	.	.	12A/	.	12d/	.	.	.
.	.	.	.	12G/J	.	12g/J	.	.	.
.	.	.	.	12c/L	.	12e/L	.	4cc/)	.
.	.	.	.	12G/	.	12g/	.	.	.
.	.	.	.	12c/J)	.	12e/J)	.	.	.
=3	=3	=3	=3	=3	=3	=3	=3	=3	=3
!	!	!	!	!	!	!	!	!LO:TUP:problem:klamra łukowa	!
1r	.	[<1GG	.	(12G/L	.	(12g/L	.	6dd/	.
.	.	.	.	12B/	.	12d/	.	.	.
.	.	.	.	12G/J	.	12g/J	.	6ee/	.
.	.	.	.	12B/L	.	12d/L	.	.	.
.	.	.	.	12G/	.	12g/	.	6dd/	.
.	.	.	.	12B/J)	.	12d/J)	.	.	.
.	.	.	.	(12A/L	.	(12e/L	.	(>4cc#X/	.
.	.	.	.	12G/	.	12g/	.	.	.
.	.	.	.	12A/J	.	12e/J	.	.	.
.	.	.	.	12G/L	.	12g/L	.	4a/	.
.	.	.	.	12A/	.	12e/	.	.	.
.	.	.	.	12G/J)	.	12g/J)	.	.	.
=4	=4	=4	=4	=4	=4	=4	=4	=4	=4
*	*	*	*	*	*	*	*	*2\right	*
1r	.	1GG]	.	(12A/L	.	(12e-X/L	.	2ccn\)	.
.	.	.	.	12G/	.	12g/	.	.	.
.	.	.	.	12A/J	.	12e-/J	.	.	.
.	.	.	.	12G/L	.	12g/L	.	.	.
.	.	.	.	12A/	.	12e-/	.	.	.
.	.	.	.	12E-X/J)	.	12g/J)	.	.	.
.	.	.	.	(12F#/L	.	(12d/L	.	(4b/	.
.	.	.	.	12D/	.	12f#/	.	.	.
.	.	.	.	12F#/J	.	12d/J	.	.	.
.	.	.	.	12D/L	.	12f#/L	.	4a/)	.
.	.	.	.	12F#/	.	12c/	.	.	.
.	.	.	.	12D/J)	.	12f#/J)	.	.	.
=5	=5	=5	=5	=5	=5	=5	=5	=5	=5
!	!	!	!	!	!	!	!	!LO:TUP:problem:klamra łukowa	!
1r	.	1GG	.	(12G/L	.	(12B/L	.	6g/	.
.	.	.	.	12D/	.	12d/	.	.	.
.	.	.	.	12G/	.	12B/J	.	6a/	.
.	.	.	.	12D/	.	12d/L	.	.	.
.	.	.	.	12G/	.	12B/)	.	6g/	.
.	.	.	.	12D/J)	.	12d/J	.	.	.
*	*	*	*	*rep	*	*	*	*	*
.	.	.	.	(12G/L	.	(12B/L	.	4f#/	.
.	.	.	.	12D/	.	12d/	.	.	.
.	.	.	.	12G/	.	12B/J	.	.	.
.	.	.	.	12D/	.	12d/L	.	4g/	.
.	.	.	.	12G/	.	12B/	.	.	.
.	.	.	.	12D/J)	.	12d/J)	.	.	.
*	*	*	*	*Xrep	*	*	*	*	*
!!LO:LB:g=original
=6	=6	=6	=6	=6	=6	=6	=6	=6	=6
1r	.	2EE\	.	(12G/L	.	(12B/L	.	4a/	.
.	.	.	.	12E/	.	12e/	.	.	.
.	.	.	.	12G/J	.	12B/J	.	.	.
.	.	.	.	12E/L	.	12e/L	.	4g/	.
.	.	.	.	12G/	.	12B/	.	.	.
.	.	.	.	12E/J)	.	12e/J)	.	.	.
.	.	2AA\	.	(12G/L	.	(12c#X/L	.	4f#/	.
.	.	.	.	12A/	.	12A/	.	.	.
.	.	.	.	12G/J	.	12c#/J	.	.	.
.	.	.	.	12A/L	.	12A/L	.	4e/	.
.	.	.	.	12G/	.	12c#/	.	.	.
.	.	.	.	12A/J)	.	12A/J)	.	.	.
=7	=7	=7	=7	=7	=7	=7	=7	=7	=7
2r	.	2DD\	.	(12F#/L	.	(12d/L	.	2.d/	.
.	.	.	.	12A/	.	12f#/	.	.	.
.	.	.	.	12F#/J	.	12d/J	.	.	.
.	.	.	.	12G/L	.	12e/L	.	.	.
.	.	.	.	12B/	.	12g/	.	.	.
.	.	.	.	12G/J)	.	12e/J)	<	.	.
[>2D\	.	[>2D\	.	(12A/L	.	(12f#/L	.	.	.
.	.	.	.	12c/	.	12a/	.	.	.
.	.	.	.	12A/J	.	12f#/J	.	.	.
.	.	.	.	12B/L	.	12e/L	.	4r	.
.	.	.	.	12d/	.	12g/	.	.	.
.	.	.	.	12B/J)	.	12e/J)	.	.	.
=8	=8	=8	=8	=8	=8	=8	=8	=8	=8
2D\]	.	2D\]	.	(12c/L	.	(12a/L	.	1r	.
.	.	.	.	12e/	.	12cc/	.	.	.
.	.	.	.	12c/J	.	12a/J	[	.	.
.	.	.	.	12d/L	.	12b/L	.	.	.
.	.	.	.	12f#/	.	12dd/	.	.	.
.	.	.	.	12d/J)	.	12b/J)	.	.	.
4D\	.	4D\	.	(12e/L	.	(12cc/L	.	.	.
.	.	.	.	12g/	.	12ee/	.	.	.
.	.	.	.	12e/J	.	12cc/J	.	.	.
4D\	.	4D\	.	12f#/L	.	12dd/L	.	.	.
.	.	.	.	12d/	.	12cc/	.	.	.
.	.	.	.	12f#/J)	.	12dd/J)	.	.	.
=9	=9	=9	=9	=9	=9	=9	=9	=9	=9
*	*	*^	*	*	*	*	*	*^	*
*	*	*Xtuplet	*	*	*	*	*	*	*	*	*
!	!	!LO:TX:a:t=divisi	!	!	!	!	!	!	!LO:TX:a:t=divisi	!	!
4GG\	.	(>12G/L	12GG\L	.	(12g/L	.	(12b/L	.	4r	4r	.
.	.	12D/	12BB\	.	12d/	.	12dd/	.	.	.	.
.	.	12G/	12GG\	.	12g/	.	12b/J	.	.	.	.
*	*	*	*	*	*	*	*	*	*	*	*^
!	!	!	!	!	!	!	!	!	!	!	!LO:DY:a	!LO:DY:b
4r	.	12D/	12BB\	.	12d/	.	12dd/L	.	4gg/	4g\	f	f
.	.	12G/	12GG\	.	12g/	.	12b/	.	.	.	.	.
.	.	12D/J)	12BB\J	.	12d/J)	.	12dd/J)	.	.	.	.	.
2r	.	(>12A/L	12GG\L	.	(12f#/L	.	(12cc/L	.	(4ff#/	4f#\	.	.
.	.	12F#/	12D\	.	12d/	.	12dd/	.	.	.	.	.
.	.	12A/	12GG\	.	12f#/	.	12cc/J	.	.	.	.	.
.	.	12F#/	12D\	.	12d/	.	12dd/L	.	8ee/L	8e\L	.	.
.	.	12A/	12GG\	.	12f#/	.	12cc/	.	.	.	.	.
.	.	.	.	.	.	.	.	.	8ff#/J	8f#\J	.	.
.	.	12F#/J)	12D\J	.	12d/J)	.	12dd/J)	.	.	.	.	.
*	*	*	*	*	*	*	*	*	*	*	*v	*v
=10	=10	=10	=10	=10	=10	=10	=10	=10	=10	=10	=10
!LO:TX:a:t=piu	!	!	!	!	!	!	!	!	!	!	!
4GG\	.	(>12G/L	12GG\L	.	(12g/L	.	(12b/L	.	4dd/)	4d\	.
.	.	12D/	12BB\	.	12d/	.	12dd/	.	.	.	.
.	.	12G/	12GG\	.	12g/	.	12b/J	.	.	.	.
4r	.	12D/	12BB\	.	12d/	.	12dd/L	.	(8gg/L	8g\L	.
.	.	12G/	12GG\	.	12g/	.	12b/	.	.	.	.
.	.	.	.	.	.	.	.	.	8aa/J	8a\J	.
.	.	12D/J)	12BB\J	.	12d/J)	.	12dd/J)	.	.	.	.
*	*	*rep	*rep	*	*rep	*	*rep	*	*	*	*
2r	.	(>12G/L	12GG\L	.	(12g/L	.	(12b/L	.	4bb/	4b\	.
.	.	12D/	12BB\	.	12d/	.	12dd/	.	.	.	.
.	.	12G/	12GG\	.	12g/	.	12b/J	.	.	.	.
.	.	12D/	12BB\	.	12d/	.	12dd/L	.	4ccc/)	4cc\	.
.	.	12G/	12GG\	.	12g/	.	12b/	.	.	.	.
.	.	12D/J)	12BB\J	.	12d/J)	.	12dd/J)	.	.	.	.
*	*	*Xrep	*Xrep	*	*Xrep	*	*Xrep	*	*	*	*
!!LO:LB:g=original
=11	=11	=11	=11	=11	=11	=11	=11	=11	=11	=11	=11
*	*	*rep	*rep	*	*rep	*	*rep	*	*Xtuplet	*tuplet	*
!	!	!	!	!	!	!	!	!	!LO:TUP:a:problem:klamra łukowa	!LO:TUP:b:problem:klamra łukowa	!
4GG\	.	(>12G/L	12GG\L	.	(12g\L	.	(12b/L	.	6ddd/	6dd\	.
.	.	12D/	12BB\	.	12d\	.	12dd/	.	.	.	.
.	.	12G/	12GG\	.	12g\	.	12b/J	.	6eee/	6ee\	.
4r	.	12D/	12BB\	.	12d\	.	12dd/L	.	.	.	.
.	.	12G/	12GG\	.	12g\	.	12b/	.	6ddd/	6dd\	<
.	.	12D/J)	12BB\J	.	12d\J)	.	12dd/J)	.	.	.	.
*	*	*Xrep	*Xrep	*	*Xrep	*	*Xrep	*	*	*	*
4G\	.	(>12G/L	12GG\L	.	(12g\L	.	(12b/L	.	4ccc#X/	4cc#X\	.
.	.	12E/	12C#X\	.	12e\	.	12ee/	.	.	.	.
.	.	12G/	12GG\	.	12g\	.	12b/J	.	.	.	.
4r	.	12D/	12BB\	.	12d\	.	12dd/L	.	4ddd/	4dd\	.
.	.	12G/	12GG\	.	12g\	.	12b/	.	.	.	.
.	.	12D/J)	12BB\J	.	12d\J)	.	12dd/J)	.	.	.	.
=12	=12	=12	=12	=12	=12	=12	=12	=12	=12	=12	=12
4C#X\	.	(>12G/L	12GG\L	.	(12e\L	.	(<12cc#X/L	.	2eee/	2ee\	.
.	.	12E/	12C#X\	.	12g\	.	12b/	.	.	.	.
.	.	12G/	12GG\	.	12e\	.	12cc#/J	.	.	.	.
4r	.	12E/	12C#\	.	12g\	.	12b/L	.	.	.	.
.	.	12G/	12GG\	.	12e\	.	12cc#/	.	.	.	.
.	.	12E/J)	12C#\J	.	12g\J)	.	12b/J)	.	.	.	[
4GG\	.	(>12D/L	12BB\L	.	(12d\L	.	(<12dd/L	.	4ddd/	4dd\	.
.	.	12G/	12GG\	.	12g\	.	12b/	.	.	.	.
.	.	12D/	12BB\	.	12d\	.	12dd/J	.	.	.	.
4r	.	12G/	12GG\	.	12e\	.	12cc#/L	.	4eee/	4ee\	.
.	.	12E/	12C#\	.	12a\	.	12b/	.	.	.	.
.	.	12G/J)	12GG\J	.	12c#X\J)	.	12a/J)	.	.	.	.
=13	=13	=13	=13	=13	=13	=13	=13	=13	=13	=13	=13
8.FF#\L	.	8.F#/L	8.FF#\L	.	8.c#X/L	.	8.f#/L 8.a#X	ff	8.fff#/L	8.ff#\L	ff
16FF#\Jk	.	16F#/Jk	16FF#\Jk	.	16c#/Jk	.	16f#/Jk 16a#	.	16fff#/Jk	16ff#\Jk	.
4FF#\	.	[>4F#/	4FF#\	.	4c#/	.	4f#/ 4a#	.	4fff#/	4ff#\	.
4r	.	2F#/_>	4r	.	2r	.	8r	.	8r	8r	.
!	!	!	!	!	!	!	!	!LO:DY:b:t=pp.	!LO:TX:b:i:t=staccato	!	!
.	.	.	.	.	.	.	8gg'\L	pp	8eee'/L	8bb\L	pp
4ryy	.	.	4r	.	.	.	8ff#'\	.	8fff#'/	8aa#X\	.
.	.	.	.	.	.	.	8ee'\J	.	8ccc#X'/J	8aa#\J	.
*	*	*v	*v	*	*	*	*	*	*	*	*
=14	=14	=14	=14	=14	=14	=14	=14	=14	=14	=14
1r	.	1F#]	.	1r	.	8dd'\L	.	8ddd/L	8bb\L	.
.	.	.	.	.	.	8cc#X'\	.	8aa#X/	8ee\	.
.	.	.	.	.	.	8b'\	.	8bb/	8dd\	.
.	.	.	.	.	.	8a#X'\J	.	8ff#/J	8cc#X\J	.
.	.	.	.	.	.	8an'/L	.	8gg/L	8ccn\L	.
.	.	.	.	.	.	8a'/	.	8dd#X/	8cc\	.
.	.	.	.	.	.	8g#X'/	.	8ee/	8b\	.
.	.	.	.	.	.	8gn'/J	.	8ee#X/J	8b\J	.
*	*	*	*	*	*	*	*	*v	*v	*
=15	=15	=15	=15	=15	=15	=15	=15	=15	=15
*	*	*^	*	*	*	*	*	*	*
1r	.	8.F#/L	8.FF#\L	.	8.c#X\L	.	8.f#/L	ff	8.a#X/L 8.ff#	ff
.	.	16F#/Jk	16FF#\Jk	.	16c#\Jk	.	16f#/Jk	.	16a#/Jk 16ff#	.
.	.	4F#/	[>4FF#\	.	4c#\	.	4f#/	.	4a#/ 4ff#	.
.	.	2r	2FF#\_<	.	8r	.	8r	.	8r	.
.	.	.	.	.	8g'\L	.	8b'/L	.	8ee'\L	pp
.	.	.	.	.	8f#'\	.	8a#X'/	.	8ff#'\	.
.	.	.	.	.	8e'\J	.	8a#'/J	.	8cc#X'\J	.
*	*	*v	*v	*	*	*	*	*	*	*
!!LO:PB:g=original
=16	=16	=16	=16	=16	=16	=16	=16	=16	=16
1r	.	1FF#_<	.	8d'\L	.	8b'/L	.	8dd'>/L	.
.	.	.	.	8c#X'\	.	8e'/	.	8a#X'>/	.
.	.	.	.	8B'\	.	8d'/	.	8b'>/	.
.	.	.	.	8A#X'\J	.	8c#X'/J	.	8f#'>/J	.
.	.	.	.	8An'\L	.	8cn'>/L	.	8g'>/L	.
.	.	.	.	8A'\	.	8c'>/	.	8d#X'>/	.
.	.	.	.	8G#X'\	.	8B'>/	.	8e'>/	.
.	.	.	.	8Gn'\J	.	8B'>/J	.	8e#X'>/J	.
=17	=17	=17	=17	=17	=17	=17	=17	=17	=17
4r	.	2FF#\]	.	4F#/	.	(>2A#X/	.	4f#/	.
(>4FF#\	.	.	.	2F#^>/	.	.	.	[<4f#^>/	.
4GG\	.	(>4GG\	.	.	.	2B/)	.	4f#/]	.
*	*	*	*	*tuplet	*	*	*	*Xtuplet	*
!	!	!	!	!LO:TUP:b:problem:klamra łukowa	!	!	!	!	!
4C#X\)	.	4C#X\)	.	12E/L	.	.	.	(12e/L	.
.	.	.	.	12G/	.	.	.	12g/	.
.	.	.	.	12E/J	.	.	.	12e/J	.
=18	=18	=18	=18	=18	=18	=18	=18	=18	=18
(>2FF#\	.	(>2FF#\	.	4F#/	.	(>2A#X/	.	4f#/)	.
.	.	.	.	2F#/	.	.	.	(>2f#^>/	.
4GG\	.	4GG\	.	.	.	4B/	.	.	.
*	*	*	*	*Xtuplet	*	*	*	*tuplet	*
!	!	!	!	!	!	!	!	!LO:TUP:b:problem:klamra łukowa	!
(>4AA\)	.	(>4AA\)	.	12E/L	.	4c#X/	.	12e/L	.
.	.	.	.	12G/	.	.	.	12g/	.
.	.	.	.	12E/J	.	.	.	12e/J)	.
=19	=19	=19	=19	=19	=19	=19	=19	=19	=19
4D\	.	4D\	.	4F#/	.	4d/)	.	4f#/	.
*	*	*	*	*	*	*	*	*Xtuplet	*
!	!	!	!	!LO:TUP:b:problem:klamra łukowa	!	!	!LO:TUP:b:problem:klamra łukowa	!	!
4C#X\	.	4C#X\	.	(<12F#/L	.	(<4e/	.	(>12f#/L	.
.	.	.	.	12A#X/	.	.	.	12a#X/	.
.	.	.	.	12F#/J	.	.	.	12f#/J	.
4BB\	.	4BB\	.	4B/	.	4d/	.	4a#/	.
4AA\)	.	4AA\)	.	4c#X/)	.	4e/)	.	4cc#X/)	.
=20	=20	=20	=20	=20	=20	=20	=20	=20	=20
*	*	*	*	*	*	*tuplet	*	*2\left	*
(>4GG\	.	(>4GG\	.	4d/	.	4b'/	.	(>4dd\	.
!	!	!	!	!	!	!LO:TUP:b:problem:klamra łukowa	!	!	!
4C#X\	.	4C#X\	.	4B/	.	12g/L	.	4ee\	.
.	.	.	.	.	.	12b/	.	.	.
.	.	.	.	.	.	12g/J	.	.	.
2FF#\)	.	2FF#\)	.	4A#X/	.	2f#/	.	2ff#\)	.
.	.	.	.	4F#/	.	.	.	.	.
!!LO:LB:g=original
=21	=21	=21	=21	=21	=21	=21	=21	=21	=21
!	!	!	!	!	!LO:HP:a	!	!	!	!
1r	.	1r	.	(2f#\	<	4r	.	(2.ff#^>\	.
!	!	!	!	!	!	!	!LO:HP:a	!	!
.	.	.	.	.	.	(<4a#X/	<	.	.
.	.	.	.	4g\	[	2b/)	[	.	.
.	.	.	.	4c#X\)	.	.	.	12ee\L	.
.	.	.	.	.	.	.	.	12gg\	.
.	.	.	.	.	.	.	.	12ee\J)	.
=22	=22	=22	=22	=22	=22	=22	=22	=22	=22
!	!	!	!	!	!LO:HP:a	!	!	!	!
1r	.	1r	.	(2f#\	<	4r	.	(2.ff#\	.
!	!	!	!	!	!	!	!LO:HP:a	!	!
.	.	.	.	.	.	(<4a#X/	<	.	.
.	.	.	.	4g\	[	2b/)	[	.	.
.	.	.	.	4c#X\	.	.	.	12ee\L	.
.	.	.	.	.	.	.	.	12gg\	.
.	.	.	.	.	.	.	.	12ee\J	.
=23	=23	=23	=23	=23	=23	=23	=23	=23	=23
1r	.	1r	.	4f#\)	.	4a#X/	.	4ff#\)	.
.	.	.	.	(4f#\	.	(>4a#/	.	(>4ff#\	.
.	.	.	.	4g\	.	4b/	.	4ee\	.
.	.	.	.	4A/	.	8an/L	.	4cc\	.
.	.	.	.	.	.	8g/J	.	.	.
=24	=24	=24	=24	=24	=24	=24	=24	=24	=24
1r	.	1r	.	4d\)	.	4f#/)	.	4dd\)	.
.	.	.	.	(4d\	.	4f#/	.	(>4dd\	.
.	.	.	.	4e\	.	4g/	.	4cc\	.
.	.	.	.	4F#/)	.	8f#/L	.	4a#X\)	.
.	.	.	.	.	.	8e/J	.	.	.
=25||	=25||	=25||	=25||	=25||	=25||	=25||	=25||	=25||	=25||
*k[f#c#g#d#a#]	*	*k[f#c#g#d#a#]	*	*k[f#c#g#d#a#]	*	*k[f#c#g#d#a#]	*	*k[f#c#g#d#a#]	*
*	*	*	*	*^	*	*	*	*	*
!	!	!	!	!LO:TX:a:t=Divisi	!	!	!	!	!LO:TX:a:t=Poco piu lento	!
1r	.	(>2BB\	.	2d#/	1B	.	(<2.f#/	.	1r	.
.	.	2D#\)	.	[>2f#/	.	.	.	.	.	.
.	.	.	.	.	.	.	4b/)	.	.	.
!!LO:LB:g=original
=26	=26	=26	=26	=26	=26	=26	=26	=26	=26	=26
1r	.	(>2F#\	.	1f#_	2.c#\	.	(2.a#/	.	1r	.
.	.	2E\	.	.	.	.	.	.	.	.
.	.	.	.	.	4A#\	.	4cc#/	.	.	.
=27	=27	=27	=27	=27	=27	=27	=27	=27	=27	=27
1r	.	4D#\)	.	4f#/]	4B\	.	4b/)	.	1r	.
.	.	(>4D#\	.	(4f#/	2B\	>	(>4b/	>	.	.
.	.	4E\)	.	4e/)	.	]	4g#/)	]	.	.
.	.	(>4E\	.	[>4e/	[<4B\	.	4g#~>/	.	.	.
=28	=28	=28	=28	=28	=28	=28	=28	=28	=28	=28
1r	.	2C#\)	.	2e/]	2B\]	.	(<8a#/L	.	1r	.
.	.	.	.	.	.	.	8g#/	.	.	.
.	.	.	.	.	.	.	8a#/	.	.	.
.	.	.	.	.	.	.	8g#/J)	.	.	.
.	.	2FF#\	.	(4e~>/	4A#\	.	(>4f#~>/	.	.	.
.	.	.	.	4e~>/)	4A#\	.	4f#~>/)	.	.	.
=29	=29	=29	=29	=29	=29	=29	=29	=29	=29	=29
*	*	*^	*	*	*	*	*	*	*^	*
!	!	!LO:TX:a:t=Divisi&colon;	!	!	!LO:TX:a:t=Divisi	!	!	!	!	!LO:TX:a:t=Divisi	!	!
2.BB\	.	1F#	2.BB\	.	(>2.d#/	[<2B\	.	(>2.f#/	.	4r	4r	.
.	.	.	.	.	.	.	.	.	.	(>16gg#/LL	(<16b\LL	.
.	.	.	.	.	.	.	.	.	.	16ff#/	16dd#\	.
.	.	.	.	.	.	.	.	.	.	16gg#/	16b\	.
.	.	.	.	.	.	.	.	.	.	16ff#/	16dd#\	.
.	.	.	.	.	.	2B\]	.	.	.	16gg#/	16b\	.
.	.	.	.	.	.	.	.	.	.	16ff#/JJ)	16dd#\JJ)	.
.	.	.	.	.	.	.	.	.	.	8r	8r	.
4D#\	.	.	4D#\	.	4f#/)	.	.	4b/	.	4r	4r	.
=30	=30	=30	=30	=30	=30	=30	=30	=30	=30	=30	=30	=30
2F#\	.	8F#/L	2F#\	.	[>1f#	2.c#\	.	2.a#/)	.	4r	4r	.
.	.	8G#/J	.	.	.	.	.	.	.	.	.	.
.	.	2.F#/	.	.	.	.	.	.	.	(>16gg#/LL	16a#\LL	.
.	.	.	.	.	.	.	.	.	.	16ff#/	16cc#\	.
.	.	.	.	.	.	.	.	.	.	16gg#/	16a#\	.
.	.	.	.	.	.	.	.	.	.	16ff#/	16cc#\	.
2E\	.	.	2E\	.	.	.	.	.	.	16gg#/	16a#\	.
.	.	.	.	.	.	.	.	.	.	16ff#/JJ)	16cc#\JJ	.
.	.	.	.	.	.	.	.	.	.	8r	8r	.
.	.	.	.	.	.	4A#\	.	(>4cc#/	.	4r	4r	.
!!LO:PB:g=original
=31	=31	=31	=31	=31	=31	=31	=31	=31	=31	=31	=31	=31
4D#\	.	4F#/	4D#\	.	4f#/]	2B\	.	4b/)	.	4r	4ryy	.
4E\	.	2E/	4E\	.	[2.g#/	.	.	4b/	.	16aa#/LL	16b\LL	.
.	.	.	.	.	.	.	.	.	.	16gg#/	16ee\	.
.	.	.	.	.	.	.	.	.	.	16aa#/	16b\	.
.	.	.	.	.	.	.	.	.	.	16gg#/JJ	16ee\JJ	.
4C#\	.	.	4C#\	.	.	4c#\	.	4ee/	.	4r	4ryy	.
4D#\	.	4F#/	4D#\	.	.	4B#X\	.	4dd#/	.	16aa-X/LL	16b#X\LL	.
.	.	.	.	.	.	.	.	.	.	16gg#/	16ff#\	.
.	.	.	.	.	.	.	.	.	.	16aa-/	16b#\	.
.	.	.	.	.	.	.	.	.	.	16gg#/JJ	16ff#\JJ	.
=32	=32	=32	=32	=32	=32	=32	=32	=32	=32	=32	=32	=32
4E\	.	4E/	4E\	.	2g#/]	4c#\	.	4cc#/	.	4r	4ryy	.
4E#X\	.	4E#X/	4E#\	.	.	4dn\	.	4b/	.	16ccc#/LL	16ddn\LL	.
.	.	.	.	.	.	.	.	.	.	16bb/	16gg#\	.
.	.	.	.	.	.	.	.	.	.	16ccc#/	16dd\	.
.	.	.	.	.	.	.	.	.	.	16bb/JJ	16gg#\JJ	.
2F#\	.	2F#/	2F#\	.	4f#/	4c#\	.	4a#/	.	4r	4ryy	.
.	.	.	.	.	4e/	4A#\	.	4g#/	.	16fff#/LL	16ff#\LL	.
.	.	.	.	.	.	.	.	.	.	16eee/	16aa#\	.
.	.	.	.	.	.	.	.	.	.	16fff#/	16ff#\	.
.	.	.	.	.	.	.	.	.	.	16eee/JJ	16aa#\JJ	.
*	*	*v	*v	*	*	*	*	*	*	*	*	*
=33	=33	=33	=33	=33	=33	=33	=33	=33	=33	=33	=33
*	*	*	*	*	*	*	*^	*	*	*	*
2BB\	.	2BB\	.	2d#/	1B	.	4f#/	4ryy	.	(>2.fff#/	(<2.ff#\	.
!	!	!	!	!	!	!	!LO:TX:a:t=Divisi	!	!	!	!	!
.	.	.	.	.	.	.	16g#/LL	16B\LL	.	.	.	.
.	.	.	.	.	.	.	16f#/	16d#\	.	.	.	.
.	.	.	.	.	.	.	16g#/	16B\	.	.	.	.
.	.	.	.	.	.	.	16f#/	16d#\	.	.	.	.
2D#\	.	2D#\	.	[2f#/	.	.	16g#/	16B\	.	.	.	.
.	.	.	.	.	.	.	16f#/JJ	16d#\JJ	.	.	.	.
.	.	.	.	.	.	.	8r	8ryy	.	.	.	.
.	.	.	.	.	.	.	4r	4ryy	.	4bbb/)	4bb\)	.
=34	=34	=34	=34	=34	=34	=34	=34	=34	=34	=34	=34	=34
4F#\	.	4F#\	.	1f#]	2.c#\	.	4r	4ryy	.	(>2.aaa#/	(>2.aa#\	.
4E#X\	.	4E#X\	.	.	.	.	16gg#/LL	16a#\LL	.	.	.	.
.	.	.	.	.	.	.	16ff#/	16cc#\	.	.	.	.
.	.	.	.	.	.	.	16gg#/	16a#\	.	.	.	.
.	.	.	.	.	.	.	16ff#/	16cc#\	.	.	.	.
2En\	.	2En\	.	.	.	.	16gg#/	16a#\	.	.	.	.
.	.	.	.	.	.	.	16ff#/JJ	16cc#\JJ	.	.	.	.
.	.	.	.	.	.	.	8r	8ryy	.	.	.	.
.	.	.	.	.	4A#\	.	4r	4ryy	.	4cccc#/)	4ccc#\)	.
=35	=35	=35	=35	=35	=35	=35	=35	=35	=35	=35	=35	=35
1D#	.	1D#	.	2f#/	[<1B	.	4r	4ryy	.	4bbb/	4bb\	.
.	.	.	.	.	.	.	16gg#/LL	16b\LL	.	(>4bbb/	4bb\	.
.	.	.	.	.	.	.	16ff#/	16dd#\	.	.	.	.
.	.	.	.	.	.	.	16gg#/	16b\	.	.	.	.
.	.	.	.	.	.	.	16ff#/	16dd#\	.	.	.	.
.	.	.	.	[>2b/	.	.	16gg#/	16b\	.	4fff#/	4ff#\	.
.	.	.	.	.	.	.	16ff#/JJ	16dd#\JJ	.	.	.	.
.	.	.	.	.	.	.	8r	8r	.	.	.	.
.	.	.	.	.	.	.	4r	4r	.	4fff##X/)	4ff##X\	.
!!LO:LB:g=original
=36	=36	=36	=36	=36	=36	=36	=36	=36	=36	=36	=36	=36
1E	.	1E	.	2b/]	2B\]	.	4r	4ryy	.	4ggg#/	4gg#\	.
.	.	.	.	.	.	.	16ff#/LL	16g#\LL	.	(>4ggg#/	4gg#\	.
.	.	.	.	.	.	.	16ee/	16b\	.	.	.	.
.	.	.	.	.	.	.	16ff#/	16g#\	.	.	.	.
.	.	.	.	.	.	.	16ee/	16b\	.	.	.	.
.	.	.	.	2G#\ 2g#	2ryy	.	16ff#/	16g#\	.	4bb/	4b\	.
.	.	.	.	.	.	.	16ee/JJ	16b\JJ	.	.	.	.
.	.	.	.	.	.	.	8r	8ryy	.	.	.	.
.	.	.	.	.	.	.	4r	4ryy	.	4ccc#/)	4cc#\	.
*	*	*	*	*v	*v	*	*	*	*	*	*	*
*	*	*	*	*	*	*v	*v	*	*v	*v	*
=37	=37	=37	=37	=37	=37	=37	=37	=37	=37
!	!	!	!	!	!	!	!	!LO:TX:b:i:t=2 violino	!
4D#\	.	4D#\	.	4F##X/ 4f##X	.	4dd#>\	.	4ddd#/	.
!	!	!	!	!	!LO:DY:a	!	!	!	!
4FF##X\	.	4FF##X\ 4D# 4A#	.	4d#\ 4a#	f	[>4dd#>^\	.	[>4ddd#^/	.
4GG#\	.	4GG#\ 4D# 4B	.	4d#\ 4b	.	8dd#>\L]	.	8ddd#/L]	.
.	.	.	.	.	.	8cc#>\	.	8ccc#/	.
4r	.	4r	.	4r	.	8b>\	.	8bb/	.
.	.	.	.	.	.	8cc#>\J	.	8ccc#/J	.
=38	=38	=38	=38	=38	=38	=38	=38	=38	=38
4r	.	4r	.	4r	.	4dd#>\	.	4ddd#/	.
!	!	!	!	!	!LO:DY:a	!	!	!	!
4FF##X\	.	4FF##X\ 4D# 4A#	.	4d#\ 4a#	f	[>4dd#>\	.	[>4ddd#^/	.
4GG#\	.	4GG#\ 4D# 4B	.	4d#\ 4b	.	8dd#>\L]	.	8ddd#/L]	.
.	.	.	.	.	.	8b>\	.	8bb/	.
4r	.	4r	.	4r	.	8a#>\	.	8aa#/	.
.	.	.	.	.	.	8g#>\J	.	8gg#/J	.
=39	=39	=39	=39	=39	=39	=39	=39	=39	=39
!	!	!	!	!	!LO:HP:a	!	!	!	!
4r	.	4r	.	4r	>	4f#>\	.	4ff#/	.
4AA#\	.	4AA#\ 4F#	.	4F#/ 4c#	.	[>4f#>^>\	.	[>4ff#^>/	.
4BB\	.	4BB\ 4F#	.	4F#/ 4d#	.	8f#>\L]	.	8ff#/L]	.
.	.	.	.	.	.	8d#>\	.	8dd#/	.
4r	.	4r	.	4r	]	8B>\	.	8b/	.
.	.	.	.	.	.	8c#>\J	.	8cc#/J	.
=40	=40	=40	=40	=40	=40	=40	=40	=40	=40
1r	.	4r	.	4r	.	4d#>\	.	4dd#/	.
.	.	4FF##X\	.	4D#/ 4A#	.	[>4d#>\	.	[>4dd#/	.
.	.	4GG#\	.	4D#/ 4B	.	8d#>\L]	.	8dd#/L]	.
.	.	.	.	.	.	8c#>\	.	8cc#/	.
.	.	4r	.	4r	.	8B>\	.	8b/	.
.	.	.	.	.	.	8c#>\J	.	8cc#/J	.
!!LO:LB:g=original
=41	=41	=41	=41	=41	=41	=41	=41	=41	=41
1r	.	4r	.	4r	.	4d#/	.	4dd#/	.
.	.	4FF##X\	.	4D#/ 4A#	.	2d#/	.	[>4dd#/	.
.	.	4GG#\	.	4D#/ 4B	.	.	.	8dd#/L]	.
.	.	.	.	.	.	.	.	8b/	.
.	.	4r	.	4r	.	4r	.	8a#/	.
.	.	.	.	.	.	.	.	8g#/J	.
=42	=42	=42	=42	=42	=42	=42	=42	=42	=42
1r	.	4r	.	4r	.	4r	.	4b/	.
.	.	(>2.Dn\	.	(<2.cn\	.	(>2.f#/	.	[>4b^>/	.
.	.	.	.	.	.	.	.	8b/L]	.
.	.	.	.	.	.	.	.	8f#/	.
.	.	.	.	.	.	.	.	8dn/	.
.	.	.	.	.	.	.	.	8f#/J	.
=43	=43	=43	=43	=43	=43	=43	=43	=43	=43
1r	.	1GGn)	.	4B/)	.	1dn)	.	[<1b	.
.	.	.	.	(<[>4B^>/	.	.	.	.	.
.	.	.	.	8B/L]	.	.	.	.	.
.	.	.	.	8Gn/	.	.	.	.	.
.	.	.	.	8E/	.	.	.	.	.
.	.	.	.	8G/J)	.	.	.	.	.
=44	=44	=44	=44	=44	=44	=44	=44	=44	=44
!	!	!	!	!	!	!LO:N:vis=2	!	!	!
1r	.	[>1DDn	.	[>1F#	.	[>1cn/	.	4b/]	.
.	.	.	.	.	.	.	.	[<4b/	.
.	.	.	.	.	.	.	.	8b/L]	.
.	.	.	.	.	.	.	.	8f#/	.
.	.	.	.	.	.	.	.	8dn/	.
.	.	.	.	.	.	.	.	8f#/J	.
=45	=45	=45	=45	=45	=45	=45	=45	=45	=45
1r	.	4DD\]	.	4F#/]	.	4c/]	.	12b/L	.
.	.	.	.	.	.	.	.	12f#/	.
.	.	.	.	.	.	.	.	12b/J	.
.	.	4r	.	4r	.	4r	.	12an/L	.
.	.	.	.	.	.	.	.	12ccn/	.
.	.	.	.	.	.	.	.	12a/J	.
.	.	2r	.	[2dn\	.	2r	.	12b/L	.
.	.	.	.	.	.	.	.	12ddn/	.
.	.	.	.	.	.	.	.	12b/J	.
.	.	.	.	.	.	.	.	12cc/L	.
.	.	.	.	.	.	.	.	12ee/	.
.	.	.	.	.	.	.	.	12cc/J	.
!!LO:PB:g=original
=46||	=46||	=46||	=46||	=46||	=46||	=46||	=46||	=46||	=46||
*ok[f#c#g#d#a#]	*	*ok[f#c#g#d#a#]	*	*ok[f#cngndnan]	*	*ok[f#cngndnan]	*	*ok[f#cngndnan]	*
*k[f#]	*	*k[f#]	*	*k[f#]	*	*k[f#]	*	*k[f#]	*
*	*	*	*	*	*	*Xtuplet	*	*	*
!LO:TX:t=P:problem:niepotrzebnie wpisane krzyżyki przy kluczu	!	!LO:TX:t=P:problem:niepotrzebnie wpisane krzyżyki przy kluczu	!	!	!	!	!	!	!
1r	.	1r	.	4d\]	.	12f#/L	.	12dd/L	.
.	.	.	.	.	.	12a/	.	12ff#/	.
.	.	.	.	.	.	12f#/J	.	12dd/J	.
.	.	.	.	(>4c#X\	.	12g/L	.	12ee/L	.
.	.	.	.	.	.	12b/	.	12gg/	.
.	.	.	.	.	.	12g/J	.	12ee/J	.
.	.	.	.	4cn\	.	12a/L	.	12ff#/L	.
.	.	.	.	.	.	12cc/	.	12aa/	.
.	.	.	.	.	.	12a/J	.	12ff#/J	.
.	.	.	.	4B\	.	12b/L	.	12gg/L	.
.	.	.	.	.	.	12dd/	.	12bb/	.
.	.	.	.	.	.	12b/J	.	12gg/J	.
=47	=47	=47	=47	=47	=47	=47	=47	=47	=47
2r	.	2r	.	4A/	.	12cc/L	.	12aa/L	.
.	.	.	.	.	.	12ee/	.	12ccc/	.
.	.	.	.	.	.	12cc/J	.	12aa/J	.
.	.	.	.	(>4D/)	.	12dd/L	.	12bb/L	.
.	.	.	.	.	.	12ff#/	.	12ddd/	.
.	.	.	.	.	.	12dd/J	.	12bb/J	.
4r	.	4r	.	2d\)	.	12ee/L	.	12ccc/L	.
.	.	.	.	.	.	12gg/	.	12eee/	.
.	.	.	.	.	.	12ee/J	.	12ccc/J	.
!LO:TX:a:t=piz	!	!	!	!	!	!	!	!	!
4D\	.	4D\	.	.	.	12ff#/L	.	12ddd/L	.
.	.	.	.	.	.	12dd/	.	12ccc/	.
.	.	.	.	.	.	12ff#/J	.	12ddd/J	.
=48	=48	=48	=48	=48	=48	=48	=48	=48	=48
*	*	*^	*	*	*	*	*	*	*
4GG\	.	4r	4GG@/	.	12d\L	.	12gg\L	.	12bb/L	.
.	.	.	.	.	12e\	.	12dd\	.	12ddd/	.
.	.	.	.	.	12d\	.	12gg\	.	12bb/J	.
4r	.	4G/	4ryy	.	12e\	.	12dd\	.	12ddd/L	.
.	.	.	.	.	12d\	.	12gg\	.	12bb/	.
.	.	.	.	.	12e\J	.	12dd\J	.	12ddd/J	.
2r	.	4F#/	2ryy	.	12d\L	.	12ff#\L	.	12ccc/L	.
.	.	.	.	.	12a\	.	12dd\	.	12ddd/	.
.	.	.	.	.	12d\	.	12ff#\	.	12ccc/J	.
.	.	8E/L	.	.	12a\	.	12dd\	.	12ddd/L	.
.	.	.	.	.	12d\	.	12ff#\	.	12ccc/	.
.	.	8F#/J	.	.	.	.	.	.	.	.
.	.	.	.	.	12a\J	.	12dd\J	.	12ddd/J	.
*	*	*v	*v	*	*	*	*	*	*	*
=49	=49	=49	=49	=49	=49	=49	=49	=49	=49
4GG\	.	4D/	.	12g\L	.	12gg\L	.	12bb/L	.
.	.	.	.	12b\	.	12dd\	.	12ddd/	.
.	.	.	.	12g\	.	12gg\	.	12bb/	.
4r	.	8G/L	.	12b\	.	12dd\	.	12ddd/	.
.	.	.	.	12g\	.	12gg\	.	12bb/	.
.	.	8A/J	.	.	.	.	.	.	.
.	.	.	.	12b\J	.	12dd\J	.	12ddd/J	.
*	*	*	*	*rep	*	*rep	*	*rep	*
2r	.	4B/	.	12g\L	.	12gg\L	.	12bb/L	.
.	.	.	.	12b\	.	12dd\	.	12ddd/	.
.	.	.	.	12g\	.	12gg\	.	12bb/	.
.	.	4c/	.	12b\	.	12dd\	.	12ddd/	.
.	.	.	.	12g\	.	12gg\	.	12bb/	.
.	.	.	.	12b\J	.	12dd\J	.	12ddd/J	.
*	*	*	*	*Xrep	*	*Xrep	*	*Xrep	*
=50	=50	=50	=50	=50	=50	=50	=50	=50	=50
*	*	*tuplet	*	*rep	*	*	*	*	*
!	!	!LO:TUP:b:problem:klamra łukowa	!	!	!	!	!	!	!
4GG\	.	6d/	.	12g\L	.	12b\L	.	12bb/L	.
.	.	.	.	12b\	.	12dd\	.	12gg/	.
.	.	6e/	.	12g\	.	12b\	.	12bb/	.
4r	.	.	.	12b\	.	12dd\	.	12gg/	.
.	.	6d/	.	12g\	.	12b\	.	12bb/	.
.	.	.	.	12b\J	.	12dd\J	.	12gg/J	.
*	*	*	*	*Xrep	*	*	*	*	*
2r	.	4c#X/	.	12g\L	.	12b-X\L	.	12bb-X/L	.
.	.	.	.	12e\	.	12cc#X\	.	12gg/	.
.	.	.	.	12g\	.	12b-\	.	12bb-/	.
.	.	4A/	.	12e\	.	12cc#\	.	12gg/	.
.	.	.	.	12g\	.	12b-\	.	12aa/	.
.	.	.	.	12e\J	.	12cc#\J	.	12gg/J	.
!!LO:LB:g=original
=51	=51	=51	=51	=51	=51	=51	=51	=51	=51
4GG\	.	2cn/	.	12f#\L	.	12a\L	.	12aa\L	.
.	.	.	.	12d\	.	12dd\	.	12ff#\	.
.	.	.	.	12f#\	.	12a\	.	12aa\	.
4r	.	.	.	12d\	.	12dd\	.	12ff#\	.
.	.	.	.	12f#\	.	12a\	.	12aa\	.
.	.	.	.	12d\J	.	12dd\J	.	12ff#\J	.
*	*	*	*	*rep	*	*	*	*	*
4D\	.	4B/	.	12f#\L	.	12b\L	.	12bb\L	.
.	.	.	.	12d\	.	12dd\	.	12ff#\	.
.	.	.	.	12f#\	.	12b\	.	12bb\	.
4r	.	4A/	.	12d\	.	12dd\	.	12ff#\	.
.	.	.	.	12f#\	.	12cc\	.	12bb\	.
.	.	.	.	12d\J	.	12dd\J	.	12ff#\J	.
*	*	*	*	*Xrep	*	*	*	*	*
=52	=52	=52	=52	=52	=52	=52	=52	=52	=52
!	!	!LO:TUP:b	!	!	!	!	!	!	!
4E\	.	6G/	.	12g\L	.	12b\L	.	12bb\L	.
.	.	.	.	12e\	.	12ee\	.	12gg\	.
.	.	6A/	.	12g\	.	12b\	.	12bb\	.
4r	.	.	.	12e\	.	12ee\	.	12gg\	.
.	.	6G/	.	12g\	.	12b\	.	12bb\	.
.	.	.	.	12e\J	.	12ee\J	.	12gg\J	.
*	*	*	*	*rep	*	*rep	*	*rep	*
4EE\	.	4F#/	.	12g\L	.	12b\L	.	12bb\L	.
.	.	.	.	12e\	.	12ee\	.	12gg\	.
.	.	.	.	12g\	.	12b\	.	12bb\	.
4r	.	4G/	.	12e\	.	12ee\	.	12gg\	.
.	.	.	.	12g\	.	12b\	.	12bb\	.
.	.	.	.	12e\J	.	12ee\J	.	12gg\J	.
*	*	*	*	*Xrep	*	*Xrep	*	*Xrep	*
=53	=53	=53	=53	=53	=53	=53	=53	=53	=53
*	*	*	*	*	*	*	*	*rep	*
4AA\	.	4A/	.	12e\L	.	12b\L	.	12bb\L	.
.	.	.	.	12a\	.	12cc#X\	.	12gg\	.
.	.	.	.	12e\	.	12b\	.	12bb\	.
4r	.	4G/	.	12a\	.	12cc#\	.	12gg\	.
.	.	.	.	12e\	.	12b\	.	12bb\	.
.	.	.	.	12a\J	.	12cc#\J	.	12gg\J	.
*	*	*	*	*	*	*	*	*Xrep	*
4AA\	.	4F#/	.	12d#X\L	.	12b#X\L	.	12bb#X\L	.
.	.	.	.	12a\	.	12dd#X\	.	12ff#\	.
.	.	.	.	12d#\	.	12b#\	.	12bb#\	.
4r	.	4E/	.	12a\	.	12ee\	.	12gg\	.
.	.	.	.	12e\	.	12a\	.	12ccc#X\	.
.	.	.	.	12a\J	.	12ee\J	.	12gg\J	.
=54	=54	=54	=54	=54	=54	=54	=54	=54	=54
[>1D	.	[>1D	.	12a\L	.	(12dd\L	.	12ff#\L	.
.	.	.	.	12f#\	.	12a\)	.	12ddd\	.
.	.	.	.	12d\J	.	12a\J	.	12ff#\J	.
.	.	.	.	12F#/L	.	12d/L	.	4r	.
.	.	.	.	12A/	.	12f#/	.	.	.
.	.	.	.	12F#/J	.	12d/J	.	.	.
.	.	.	.	12A/L	.	12f#/L	.	2r	.
.	.	.	.	12c/	.	12a/	.	.	.
.	.	.	.	12A/J	.	12f#/J	.	.	.
.	.	.	.	12B/L	.	12g/L	.	.	.
.	.	.	.	12d/	.	12b/	.	.	.
.	.	.	.	12B/J	.	12g/J	.	.	.
=55	=55	=55	=55	=55	=55	=55	=55	=55	=55
2D\]	.	2D\]	.	12c/L	.	12a/L	.	1r	.
.	.	.	.	12e/	.	12cc/	.	.	.
.	.	.	.	12c/J	.	12a/J	.	.	.
.	.	.	.	12d/L	.	12b/L	.	.	.
.	.	.	.	12f#/	.	12dd/	.	.	.
.	.	.	.	12d/J	.	12b/J	.	.	.
4D\	.	4D\	.	12e/L	.	12cc/L	.	.	.
.	.	.	.	12g/	.	12ee/	.	.	.
.	.	.	.	12e/J	.	12cc/J	.	.	.
4D\	.	4D\	.	12f#/L	.	12dd/L	.	.	.
.	.	.	.	12d/	.	12cc/	.	.	.
.	.	.	.	12f#/J	.	12dd/J	.	.	.
!!LO:PB:g=original
=56||	=56||	=56||	=56||	=56||	=56||	=56||	=56||	=56||	=56||
*k[]	*	*k[]	*	*k[]	*	*k[]	*	*k[]	*
*M4/4	*	*M4/4	*	*M4/4	*	*M4/4	*	*M4/4	*
*	*	*Xtuplet	*	*tuplet	*	*	*	*	*
!	!	!	!	!LO:TUP:a:problem:klamra łukowa	!	!	!	!	!
!	!	!	!	!LO:S:color=grey	!	!	!	!	!
4E-X\	.	12E-X\L	.	(>12G/L	<	4a/	.	1r	.
.	.	12AA@\	.	12A/	.	.	.	.	.
.	.	12BB@\J	.	12B-X/J	.	.	.	.	.
!	!	!	!	!LO:TUP:a:problem:klamra łukowa	!	!	!	!	!
4r	.	12C@\L	.	12c\L	.	4r	.	.	.
.	.	12C#X@\	.	12c#X\	.	.	.	.	.
.	.	12F#X@\J	.	12f#X\J)	[	.	.	.	.
*	*	*	*	*	*	*tuplet	*	*	*
!	!	!	!	!LO:TUP:a:problem:klamra łukowa	!	!	!	!	!
!	!	!	!	!	!	!LO:TUP:b:problem:klamra łukowa	!	!	!
2r	.	12G@\L	.	12g\L	.	12r	.	.	.
*	*	*	*	*	*	*	*	*	*
!	!	!	!	!LO:TX:t=P:problem:fragmenty napisane wg poprawek ołówkowych (konsultacja z EZ)	!	!	!	!	!
.	.	12E-@\	.	12e-X@\	.	(<12e-X/L	.	.	.
.	.	12F#@\J	.	12f#@\J	.	12f#X/	.	.	.
*	*	*	*	*Xtuplet	*	*	*	*	*
.	.	12G@\L	.	12g@\L	.	12g/	.	.	.
.	.	12A@\	.	12a@\	.	12a/	.	.	.
.	.	12B-X@\J	.	12b-X@\J	.	12b-X/J)	.	.	.
=57||	=57||	=57||	=57||	=57||	=57||	=57||	=57||	=57||	=57||
*k[f#]	*	*k[f#]	*	*k[f#]	*	*k[f#]	*	*k[f#]	*
*	*	*^	*	*	*	*	*	*	*
!LO:TX:a:t=piz.	!	!LO:TX:t=P:problem:stem.color=grey	!	!	!	!	!	!	!	!
8D\	.	4D/	8DD@\	.	4B\ 4g	.	4G/ 4d 4bn 4gg	.	4G/ 4d 4b 4gg	.
8r	.	.	8r@	.	.	.	.	.	.	.
!	!	!LO:TX:t=P:problem:stem.color=grey	!	!	!	!	!	!	!	!
8d\	.	4B/	8D@\	f	4d\ 4f#	f	4d/ 4b	f	4ff#/	f
8r	.	.	8r	.	.	.	.	.	.	.
!	!	!LO:TX:t=P:problem:stem.color=grey	!	!	!	!	!	!	!	!
8D\	.	4E/	8DD@\	.	4B\ 4g	.	4e/ 4b	.	4ee/	.
8r	.	.	8r	.	.	.	.	.	.	.
*	*	*	*	*	*	*	*	*	*tuplet	*
!	!	!LO:TX:t=P:problem:stem.color=grey	!	!	!	!	!	!	!LO:TUP:problem:klamra łukowa	!
8d\	.	4B/	8D@\	.	4d\ 4f#	.	4d/ 4b	.	12ff#/L	.
.	.	.	.	.	.	.	.	.	12dd/	.
8r	.	.	8ryy	.	.	.	.	.	.	.
.	.	.	.	.	.	.	.	.	12ff#/J	.
*	*	*v	*v	*	*	*	*	*	*	*
=58	=58	=58	=58	=58	=58	=58	=58	=58	=58
8D\	.	8DD@\	.	4B\ 4g	.	4e/ 4b	.	(<4ee/	.
8r	.	8ryy	.	.	.	.	.	.	.
8d\	.	8D@\	.	4B\	.	4b/	.	8dd/L	.
8r	.	8ryy	.	.	.	.	.	8b/J	.
8D\	.	8DD@\	.	(>4B\	.	2e/	.	4g/	.
8r	.	8ryy	.	.	.	.	.	.	.
8AA\	.	8AA@\	.	4c\	.	.	.	4a/)	.
8r	.	8ryy	.	.	.	.	.	.	.
=59	=59	=59	=59	=59	=59	=59	=59	=59	=59
8D\	.	4D\	.	4d\)	.	4f#/	.	[<2d/ [>2a	.
8r	.	.	.	.	.	.	.	.	.
!	!	!	!	!	!	!LO:TUP:b:problem:klamra łukowa	!	!	!
8D\	.	4DD\	.	4D/	.	12g/L	.	.	.
.	.	.	.	.	.	12f#/	.	.	.
8r	.	.	.	.	.	.	.	.	.
.	.	.	.	.	.	12e/J	.	.	.
4r	.	8.D\L	.	8.A/L	.	8.f#/L	.	8.d/L] 8.a]	.
.	.	16D\Jk	.	16A/Jk	.	16f#/Jk	.	16a/Jk	.
!LO:TX:b:t=arco	!	!	!	!	!	!	!	!	!
4B\	.	4BB\	.	4d^>\	.	4f#/	.	4d/ 4dd	.
=60	=60	=60	=60	=60	=60	=60	=60	=60	=60
4E\	.	4E\	.	(4B/	<	(<[>4g/	.	4g/	.
!	!	!	!	!	!	!LO:TUP:b:problem:klamra łukowa	!	!	!
4D\	.	2D\	.	4d\	.	12g/L]	.	[<4a/	.
.	.	.	.	.	.	12f#/	.	.	.
.	.	.	.	.	.	12e/J)	.	.	.
4r	.	.	.	4c/	.	8.f#/L	.	8.a/L]	.
.	.	.	.	.	.	16f#/Jk	.	16a/Jk	.
4G\	.	4G\	.	4B/)	[	4fn/	.	4d/ 4dd	.
=61	=61	=61	=61	=61	=61	=61	=61	=61	=61
4c\	.	4C\ 4G	.	4c\	.	4e/	.	4e/ 4ee	.
4B\	.	4B\	.	4d\	.	4g/	.	4dd/	.
4A\	.	4A\	.	4e\	.	4a/	.	4cc/	.
!	!	!	!	!	!	!	!	!LO:TUP:b:problem:klamra łukowa	!
4E\	.	4E\	.	4E/ 4B 4g	.	4G/ 4e 4b	.	12ee/L	.
.	.	.	.	.	.	.	.	12b/	.
.	.	.	.	.	.	.	.	12ee/J	.
!!LO:LB:g=original
=62	=62	=62	=62	=62	=62	=62	=62	=62	=62
4A\	.	4A\	.	4c/ 4a	.	4e/ 4cc	.	4cc/	.
4G\	.	4G\	.	4B/	.	[<4e/	.	4b/	.
4F#\	.	4F#\	.	4c/	.	4e/]	.	4a/	.
4BB/	.	4BB/	.	4B/	.	4d#X/	.	(<8b/L	.
.	.	.	.	.	.	.	.	8f#/J)	.
=63	=63	=63	=63	=63	=63	=63	=63	=63	=63
4E\	.	4E\	.	4B|>/	.	4e/	.	4g/	.
4r	.	4r	.	4r	.	4r	.	8.b/L	.
.	.	.	.	.	.	.	.	16b/Jk	.
2r	.	4r	.	4r	.	8.c#X/L	.	(<4gg^>/	.
.	.	.	.	.	.	16c#/Jk	.	.	.
.	.	4E\	.	4c#X\	.	4g^>/	.	8ff#/L	.
.	.	.	.	.	.	.	.	8ee/J	.
=64	=64	=64	=64	=64	=64	=64	=64	=64	=64
4r	.	4F#\	.	4d\	.	4f#/	.	4dd/)	.
!	!LO:DY:a	!	!LO:DY:a	!	!	!	!	!	!
4F#\	f	4F#\	f	4F#@/ 4A#X	.	4A#X/ 4f#	f	4A#X/ 4f# 4cc#X	f
4BB/	.	4BB/	.	4F#@/ [<4B	.	4B/ 4f#	.	4B/ 4f# 4b	.
4r;>	.	4r;>	.	4B;>/]	.	4r;>	.	4r;>	.
=65	=65	=65	=65	=65	=65	=65	=65	=65	=65
8A\	.	(>4A\	.	(<4c/	.	4r	.	1r	.
8r	.	.	.	.	.	.	.	.	.
8G\	.	4G\	.	4B/	.	(<4e/	.	.	.
8r	.	.	.	.	.	.	.	.	.
8F#\	.	4F#\	.	[<2A/)	.	4a/	<	.	.
8r	.	.	.	.	.	.	.	.	.
8E\	.	4E\	.	.	.	4g/	.	.	.
8r	.	.	.	.	.	.	.	.	.
=66	=66	=66	=66	=66	=66	=66	=66	=66	=66
8D\	.	4D\	.	(<4A/]	.	4f#/	[	4r	.
8r	.	.	.	.	.	.	.	.	.
8C\	.	4C\	.	4E/	.	4e/	.	8.a/L	.
8r	.	.	.	.	.	.	.	.	.
.	.	.	.	.	.	.	.	16a/Jk	<
8BB\	.	4BB\	.	2F#/)	.	2d/)	.	(>4dd/	.
8r	.	.	.	.	.	.	.	.	.
8AA/	.	4AA\	.	.	.	.	.	4cc/	.
8r	.	.	.	.	.	.	.	.	.
=67	=67	=67	=67	=67	=67	=67	=67	=67	=67
8GG\	.	8GG\)	.	8G/	.	8d/	.	4b/)	[
8r	.	8r	.	8r	.	8r	.	.	.
4r	.	(>4GG^>\	.	(<4C#X^>/	.	(<4B-X^>/	.	(<[<4ee^>/	.
2r	.	2FF#\	.	[<2D/	.	2A/	.	(<8ee/L]	.
.	.	.	.	.	.	.	.	8dd/)	.
.	.	.	.	.	.	.	.	8a/	.
.	.	.	.	.	.	.	.	8cc/J	.
!!LO:LB:g=original
=68	=68	=68	=68	=68	=68	=68	=68	=68	=68
1r	.	8GG\)	.	8D/])	.	8G/)	.	4b/)	.
.	.	8r	.	8r	.	8r	.	.	.
.	.	(>2G\	.	(>2B-X/	.	(>[<4c#X/	.	(<[<4ee/	.
!	!	!	!	!	!	!	!	!LO:TUP:b:problem:klamra łukowa	!
.	.	.	.	.	.	8c#/L]	.	12ee/L]	.
.	.	.	.	.	.	.	.	12dd/	.
.	.	.	.	.	.	8e/J	.	.	.
.	.	.	.	.	.	.	.	12cc#X/	.
.	.	8F#\L	.	8A/L	.	4d/	.	12dd/	.
.	.	.	.	.	.	.	.	12a/	.
.	.	8Fn\J	.	8A-X/J	.	.	.	.	.
.	.	.	.	.	.	.	.	12b/J	.
=69	=69	=69	=69	=69	=69	=69	=69	=69	=69
1r	.	2E\	.	4G/	.	2e/	.	(<8dd/L)	.
.	.	.	.	.	.	.	.	8cc/	.
.	.	.	.	4c/	.	.	.	8g/	.
.	.	.	.	.	.	.	.	8a/J	.
.	.	4E-X\)	.	4d-X/)	.	4fn/)	.	4b-X/)	.
.	.	4r	.	4r	.	4r	.	(<8g/L	.
.	.	.	.	.	.	.	.	8a/J	.
=70	=70	=70	=70	=70	=70	=70	=70	=70	=70
!LO:TX:a:t=piz	!	!	!	!	!	!	!	!	!
8E-X\	.	8E-X\	.	8d-X/	.	8fn/	.	4b-X/)	.
8r	.	8r	.	8r	.	8r	.	.	.
4r	.	4r	.	4r	.	4r	.	(<8g/L	.
.	.	.	.	.	.	.	.	8a/J	.
2r	.	8D\	.	8c/	.	8f#X/	.	4bn/)	.
.	.	8r	.	8r	.	8r	.	.	.
.	.	4r	.	4r	.	4r	.	(<8g#X/L	.
.	.	.	.	.	.	.	.	8a/J	.
=71	=71	=71	=71	=71	=71	=71	=71	=71	=71
!LO:TX:a:t=piz	!	!	!	!	!	!	!	!	!
8D\	.	8D\	.	8c/	.	8f#/	.	4b/)	.
8r	.	8r	.	8r	.	8r	.	.	.
4r	.	4r	.	4r	.	4r	.	(<8a/L	.
.	.	.	.	.	.	.	.	8b/J	.
(2D\	.	(>2D\	.	(<4A/	.	(>2f#/	.	8cc/L	.
.	.	.	.	.	.	.	.	8dd#X/	.
.	.	.	.	4A#X/	.	.	.	8ee/	.
.	.	.	.	.	.	.	.	8cc/J	.
=72	=72	=72	=72	=72	=72	=72	=72	=72	=72
4GG\)	.	4GG\)	.	4B/)	.	4g/)	.	4b/)	.
4r	.	(8G\L	.	4r	.	4r	.	4r	.
!	!	!	!LO:HP:a	!	!	!	!	!	!
.	.	8A\J	<	.	.	.	.	.	.
2r	.	8B\L	[	2r	.	2r	.	2r	.
.	.	8d\	.	.	.	.	.	.	.
!	!	!LO:ACC:color=grey	!	!	!	!	!	!	!
.	.	8fnX\	.	.	.	.	.	.	.
.	.	8e-X\J)	.	.	.	.	.	.	.
=73	=73	=73	=73	=73	=73	=73	=73	=73	=73
!LO:TX:a:t=piz	!	!	!	!	!	!	!	!	!
8d\	.	(4d\	.	(>4fn\	.	4r	.	1r	.
8r	.	.	.	.	.	.	.	.	.
8c\	.	4c\	.	4e-X\	.	(>4a-X/	.	.	.
8r	.	.	.	.	.	.	.	.	.
8B-X\	.	4B-X\	.	[<2d\	.	4dd/	.	.	.
8r	.	.	.	.	.	.	.	.	.
8A-X\	.	4A-X\)	.	.	.	4cc/	.	.	.
8r	.	.	.	.	.	.	.	.	.
!!LO:PB:g=original
=74	=74	=74	=74	=74	=74	=74	=74	=74	=74
8G\	.	4G\	.	(>4d\])	.	4b/	.	4r	.
8r	.	.	.	.	.	.	.	.	.
8Fn\	.	4Fn\	.	4A-X/	.	4a-X/	.	8.dd\L	.
8r	.	.	.	.	.	.	.	.	.
.	.	.	.	.	.	.	.	(>16dd\Jk	.
8E-X\	.	4E-X\	.	4An/	.	[<2g/	.	4gg\	.
8r	.	.	.	.	.	.	.	.	.
8D\	.	4D\	.	4B/	.	.	.	4ffn\	.
8r	.	.	.	.	.	.	.	.	.
=75	=75	=75	=75	=75	=75	=75	=75	=75	=75
8C\	.	8C\	.	8c/)	.	8g/])	.	4ee-X\)	.
8r	.	8r	.	8r	.	8r	.	.	.
4r	.	(>4C\	.	(<4F#X/	.	(<4e-X/	.	(>[>4aa-X\	.
2r	.	2BB\	.	[<2G/	.	2d/	.	8aa-\L]	.
.	.	.	.	.	.	.	.	8gg\	.
.	.	.	.	.	.	.	.	8dd\	.
.	.	.	.	.	.	.	.	8ffn\J	.
=76	=76	=76	=76	=76	=76	=76	=76	=76	=76
1r	.	8C\)	.	8G/])	.	8e-X/)	.	4ee-X\)	<
.	.	8r	.	8r	.	8r	.	.	.
.	.	(>2c\	.	(>2e-X\	.	(>[<4f#X/	.	(>[>4aa-X\	.
*	*	*	*	*	*	*	*	*Xtuplet	*
.	.	.	.	.	.	8f#/L]	.	12aa-\L]	.
.	.	.	.	.	.	.	.	12gg\	.
.	.	.	.	.	.	8a-X/J	.	.	.
.	.	.	.	.	.	.	.	12ff#X\	.
.	.	8B\L	.	8d\L	.	4g/	.	12gg\	.
.	.	.	.	.	.	.	.	12dd\	[
.	.	8B-X\J	.	8d-X\J	.	.	.	.	.
.	.	.	.	.	.	.	.	12een\J	.
=77	=77	=77	=77	=77	=77	=77	=77	=77	=77
1r	.	2A\	.	4c\	.	2an/	.	8gg\L)	.
.	.	.	.	.	.	.	.	(>8ff#\	>
.	.	.	.	4fn\	.	.	.	8cc\	.
.	.	.	.	.	.	.	.	8dd\J	.
.	.	4A-X\)	.	4g-X\)	.	4b-X/)	.	4ee-X\)	]
.	.	4r	.	4r	.	4r	.	(>8cc\L	<
.	.	.	.	.	.	.	.	8dd\J	.
=78	=78	=78	=78	=78	=78	=78	=78	=78	=78
!LO:TX:a:t=piz	!	!	!	!	!	!	!	!	!
8A-X\	.	8A-X\	.	8g-X\	p	8b-X/	p	4ee-X\)	[
8r	.	8r	.	8r	.	8r	.	.	.
4r	.	4r	.	4r	.	4r	.	(>8cc\L	.
.	.	.	.	.	.	.	.	8dd\J	.
8G\	.	8G\	.	8fn\	.	8bn/	.	4ee-\)	.
8r	.	8r	.	8r	.	8r	.	.	.
4r	.	(>8C\L	.	(<8C/L	.	(8c/L	.	(>8cc\L	.
.	.	8D\J	.	8D/J	.	8d/J	.	8dd\J	f
=79	=79	=79	=79	=79	=79	=79	=79	=79	=79
4r	.	4E-X\)	.	4E-X/)	.	4e-X/)	.	4ee-X\)	.
!LO:TX:a:t=arco	!	!	!	!	!	!	!	!	!
8C\L	.	8C\L	.	8C/L	.	8c/L	.	8cc\L	.
!	!	!	!	!	!	!	!	!	!LO:DY:t=forte
8D\J	.	8D\J	.	8D/J	.	8d/J	.	8dd\J	f
8E-X\L	.	8E-\L	.	8E-/L	.	8e-/L	.	8ee-\L	.
8F#X\	.	8F#X\	.	8F#X/	.	8f#X/	.	8ff#X\	.
8G\	.	8G\	.	8G/	.	8g/	.	8gg\	.
8c\J	.	8c\J	.	8c/J	.	8cc/J	.	8ccc\J	.
!!LO:LB:g=original
=80	=80	=80	=80	=80	=80	=80	=80	=80	=80
8e-X\L	.	8e-X\L	.	8e-X\L	.	8ee-X\L	.	8eee-X\L	.
8d\	.	8d\	.	8d\	.	8dd\	.	8ddd\	.
8e-\	.	8e-\	.	8e-\	.	8ee-\	.	8eee-\	.
8B\J	.	8B\J	.	8B\J	.	8b\J	.	8bb\J	.
8c\L	.	8c\L	.	8c\L	.	8cc\L	.	8ccc\L	.
8B\	.	8B\	.	8B\	.	8b\	.	8bb\	.
8c\	.	8c\	.	8c\	.	8cc\	.	8ccc\	.
8F#\J	.	8F#\J	.	8F#\J	.	8f#\J	.	8ff#\J	.
=81	=81	=81	=81	=81	=81	=81	=81	=81	=81
8G\L	.	8G\L	.	8G/L	.	8g/L	.	8gg\L	.
8D\	.	8D\	.	8D/	.	8d/	.	8dd\	.
8E-X\	.	8E-X\	.	8E-X/	.	8e-X/	.	8ee-X\	.
8BB\J	.	8BB\J	.	8B/J	.	8B/J	.	8b\J	.
8C\L	.	8C\L	.	8c/L	.	8c/L	.	8cc\L	.
8F#\	.	8F#\	.	8F#/	.	8f#/	.	8f#\	.
8G\	.	8G\	.	8G/	.	8g/	.	8g\	.
8D\J	.	8D\J	.	8D/J	.	8d/J	.	8d\J	.
=82	=82	=82	=82	=82	=82	=82	=82	=82	=82
8E-X\L	.	8E-X\L	.	8E-X/L	.	8e-X/L	.	8e-X/L	.
8C\	.	8C\	.	8C/	.	8c/	.	8c/	.
8E-\	.	8E-\	.	8E-/	.	8e-/	.	8e-/	.
8G\J	.	8G\J	.	8G/J	.	8g/J	.	8g/J	.
8c\L	.	8c\L	.	8c/L	.	8cc/L	.	8cc/L	.
8B-X\	.	8B-X\	.	8B-X/	.	8b-X/	.	8b-X/	.
8A\	.	8A\	.	8A/	.	8a/	.	8a/	.
8G\J	.	8G\J	.	8G/J	.	8g/J	.	8g/J	.
=83	=83	=83	=83	=83	=83	=83	=83	=83	=83
4D\	.	4D\	.	4A/ 4f#X	.	4f#X/ 4dd	.	4d/ 4dd	.
4r	.	4r	.	4E/	.	4f#/	.	4r	.
4r	.	2r	.	4D/	.	4d/	.	2r	.
*	*	*	*	*tuplet	*	*	*	*	*
!	!	!	!	!LO:TUP:a:problem:klamra łukowa	!	!LO:TUP:a:problem:klamra łukowa	!	!	!
4r	.	.	.	12E-X/L	.	12e-X/L	.	.	.
.	.	.	.	12C/	.	12c/	.	.	.
.	.	.	.	12E-/J	.	12e-/J	.	.	.
=84	=84	=84	=84	=84	=84	=84	=84	=84	=84
4D\	.	4D\	.	4D/ 4A 4f#	.	4d/ 4a 4ff#	.	4d/ 4ff# 4ddd	.
4r	.	4r	.	4A/	.	4a/	.	4r	.
!	!	!	!	!	!	!	!LO:DY:b:t=forte	!	!
2r	.	2r	.	4F#/	.	4f#/	f	2r	.
!	!	!	!	!LO:TUP:b:problem:klamra łukowa	!	!LO:TUP:a:problem:klamra łukowa	!	!	!
.	.	.	.	12G/L	.	12g/L	.	.	.
.	.	.	.	12E-X/	.	12e-X/	.	.	.
.	.	.	.	12G/J	.	12g/J	.	.	.
=85	=85	=85	=85	=85	=85	=85	=85	=85	=85
4D\	.	4DD/ 4AA 4F#	.	4D/ 4A 4f#	.	4d/ 4a 4ff#	.	4d/ 4ff# 4ddd	.
*	*	*tuplet	*	*	*	*	*	*	*
!	!	!LO:TUP:a:problem:klamra łukowa	!	!LO:TUP:b:problem:klamra łukowa	!	!LO:TUP:a:problem:klamra łukowa	!	!	!
!	!	!	!	!	!LO:HP:a	!	!	!	!
4r	.	12B-X\L	.	12B-X/L	<	12b-X/L	<	4r	.
.	.	12F#\	.	12F#/	.	12f#/	.	.	.
.	.	12B-\J	.	12B-/J	.	12b-/J	.	.	.
2r	.	4A\	.	4A/	.	4a/	.	2r	.
!	!	!LO:TUP:a:problem:klamra łukowa	!	!LO:TUP:b:problem:klamra łukowa	!	!LO:TUP:a:problem:klamra łukowa	!	!	!
.	.	12e-X\L	.	12e-X/L	.	12ee-X/L	.	.	.
.	.	12c#X\	.	12c#X/	.	12cc#X/	[	.	.
.	.	12e-\J	.	12e-/J	[	12ee-/J	.	.	.
!!LO:LB:g=original
=86	=86	=86	=86	=86	=86	=86	=86	=86	=86
4D\	.	4d\	.	4d\	.	4dd/	.	4r	.
*	*	*tremolo	*	*tremolo	*	*tremolo	*	*tremolo	*
4r	.	16A\LL	.	16A\LL	.	16a\LL	.	16a/LL	.
.	.	16A\	.	16A\	.	16a\	.	16a/	.
.	.	16B\	.	16B\	.	16b\	.	16b/	.
.	.	16B\JJ	.	16B\JJ	.	16b\JJ	.	16b/JJ	.
2r	.	16c\LL	.	16c\LL	.	16cc\LL	.	16cc/LL	.
.	.	16c\	.	16c\	.	16cc\	.	16cc/	.
.	.	16d\	.	16d\	.	16dd\	.	16dd/	.
.	.	16d\	.	16d\	.	16dd\	.	16dd/	.
.	.	16e\	.	16e\	.	16ee\	.	16ee/	.
.	.	16e\	.	16e\	.	16ee\	.	16ee/	.
.	.	16f#\	.	16f#\	.	16ff#\	.	16ff#/	.
.	.	16f#\JJ	.	16f#\JJ	.	16ff#\JJ	.	16ff#/JJ	.
*	*	*Xtremolo	*	*Xtremolo	*	*Xtremolo	*	*Xtremolo	*
=87	=87	=87	=87	=87	=87	=87	=87	=87	=87
!	!	!	!	!LO:TUP:a	!	!	!	!	!
4GG\	.	4GG\ 4B 4g	.	(12g\L	.	4G/ 4d 4b 4gg	.	4G/ 4d 4b 4gg	.
.	.	.	.	12f#\	.	.	.	.	.
.	.	.	.	12e\J	.	.	.	.	.
!	!	!	!	!LO:TUP:a	!	!	!	!	!
4BB\	.	4BB\	.	12d\L	.	4d/ 4b	.	4ff#/	.
.	.	.	.	12c#X\	.	.	.	.	.
.	.	.	.	12B\J)	.	.	.	.	.
!	!	!	!	!LO:TUP:a	!	!	!	!	!
4E\	.	4E\	.	(12g\L	.	4e/ 4b	.	4ee/	.
.	.	.	.	12f#\	.	.	.	.	.
.	.	.	.	12e\J	.	.	.	.	.
*	*	*	*	*	*	*	*	*tuplet	*
!	!	!	!	!LO:TUP:a	!	!	!	!LO:TUP:b:problem:klamra łukowa	!
4BB\	.	4BB\	.	12d\L	.	4d/ 4b	.	12ff#/L	.
.	.	.	.	12c#\	.	.	.	12dd/	.
.	.	.	.	12B\J)	.	.	.	12ff#/J	.
=88	=88	=88	=88	=88	=88	=88	=88	=88	=88
*	*	*	*	*Xtuplet	*	*	*	*	*
4E\	.	4E\	.	(12e\L	.	4e/ 4b	.	(<4ee/	.
.	.	.	.	12B\	.	.	.	.	.
.	.	.	.	12c#X\J	.	.	.	.	.
!	!	!	!	!	!	!LO:TUP:b:problem:klamra łukowa	!	!	!
4BB\	.	4BB\	.	4d\)	.	12f#/L	.	8dd/L	.
.	.	.	.	.	.	12a/	.	.	.
.	.	.	.	.	.	.	.	8b/J	.
.	.	.	.	.	.	12g/J	.	.	.
*	*	*	*	*tuplet	*	*	*	*	*
!	!	!	!	!LO:TUP:b:problem:klamra łukowa	!	!	!	!	!
4E\	.	4E\	.	12B/L	.	2e/	.	4g/	.
.	.	.	.	12A/	.	.	.	.	.
.	.	.	.	12B/J	.	.	.	.	.
!	!	!LO:TUP:a:problem:klamra łukowa	!	!	!	!	!	!	!
4BB\	.	12AA\L	.	4c#/	.	.	.	4a/)	.
.	.	12BB\	.	.	.	.	.	.	.
.	.	12AA\J	.	.	.	.	.	.	.
=89	=89	=89	=89	=89	=89	=89	=89	=89	=89
!	!	!	!	!LO:TUP:b	!	!	!	!	!
4D\	.	4D\	.	(12d/L	.	4f#/	.	[<2d/ [>2a	.
.	.	.	.	12c/	.	.	.	.	.
.	.	.	.	12B/J	.	.	.	.	.
!	!	!	!	!	!	!LO:TUP:b:problem:klamra łukowa	!	!	!
4D\	.	4DD\	.	4A/)	.	12g/L	.	.	.
.	.	.	.	.	.	12f#/	.	.	.
.	.	.	.	.	.	12e/J	.	.	.
!	!	!	!	!LO:TUP:b:problem:klamra łukowa	!	!	!	!	!
4r	.	8.D\L	.	12A/L	.	8.f#/L	.	8.d/L] 8.a]	.
.	.	.	.	12f#/	.	.	.	.	.
.	.	.	.	12e/J	.	.	.	.	.
.	.	16D\Jk	.	.	.	16f#/Jk	.	16a/Jk	.
!	!	!	!LO:DY:a	!	!	!	!	!	!
4BB\	.	4BB\	sf	4d/	sf	4f#/	.	4d/ 4dd	sf
=90	=90	=90	=90	=90	=90	=90	=90	=90	=90
!	!	!LO:TUP:a:problem:klamra łukowa	!	!	!	!	!	!	!
4E\	.	12E\L	.	4B/	.	[>4g/	.	4g/	.
.	.	12F#\	.	.	.	.	.	.	.
.	.	12E\J	.	.	.	.	.	.	.
!	!	!	!	!	!	!LO:TUP:b:problem:klamra łukowa	!	!	!
4D\	.	2D\	.	4d/	.	12g/L]	.	[>4a/	.
.	.	.	.	.	.	12f#/	.	.	.
.	.	.	.	.	.	12e/J	.	.	.
!	!	!	!	!LO:TUP:b:problem:klamra łukowa	!	!	!	!	!
4r	.	.	.	12c/L	.	8.f#/L	.	8.a/L]	.
.	.	.	.	12d/	.	.	.	.	.
.	.	.	.	12c/J	.	.	.	.	.
.	.	.	.	.	.	16f#/Jk	.	16a/Jk	.
4G\	.	4G\	.	4B/	.	4fn/	sf	4d/ 4dd	sf
=91	=91	=91	=91	=91	=91	=91	=91	=91	=91
4c\	.	4c\	.	4c/	.	4e/	.	4e/ 4ee	.
4B\	.	4B\	.	4d/	.	4g/	.	4dd/	.
4A\	.	4A\	.	4e/	.	4a/	.	4cc/	.
!	!	!	!	!	!	!	!	!LO:TUP:b:problem:klamra łukowa	!
4G\	.	4G\	.	4B/ 4g	.	4e/ 4b	.	12ee/L	.
.	.	.	.	.	.	.	.	12b/	.
.	.	.	.	.	.	.	.	12ee/J	.
!!LO:PB:g=original
=92	=92	=92	=92	=92	=92	=92	=92	=92	=92
4A\	.	4A\	.	4c/ 4a	.	4e/ 4cc	.	4cc/	.
4G\	.	4G\	.	4B/	.	[<4e/	.	4b/	.
4F#\	.	4F#\	.	4c/	.	4e/]	.	4a/	.
4BB\	.	4BB\	.	4B/	.	4d#X/	.	(<8b/L	.
.	.	.	.	.	.	.	.	8f#/J	.
=93	=93	=93	=93	=93	=93	=93	=93	=93	=93
4E\	.	4E\	.	4B/	.	4e/	.	4g/)	.
4r	.	4r	.	4r	.	4r	.	8.b/L	.
.	.	.	.	.	.	.	.	16b/Jk	.
4r	.	4r	.	4r	.	8.B/L	.	(<4bb/	.
.	.	.	.	.	.	16B/Jk	.	.	.
4E\	.	4E\	.	4B/ 4g	.	4b/	.	8aa/L	.
.	.	.	.	.	.	.	.	8gg/J	.
=94	=94	=94	=94	=94	=94	=94	=94	=94	=94
4E-X\	.	4E-X\	.	4B/ 4g	.	4b/	.	4bb^>/)	.
4r	.	4r	.	4r	.	4r	.	8.b/L	.
.	.	.	.	.	.	.	.	16b/Jk	.
4r	.	4r	.	4r	.	8.B/L	.	(<4bb^>/	.
.	.	.	.	.	.	16B/Jk	.	.	.
4E-\	.	4E-\	.	4B/ 4g	.	4b/	.	8aa/L	.
.	.	.	.	.	.	.	.	8gg/J	.
=95	=95	=95	=95	=95	=95	=95	=95	=95	=95
4D\	.	4D\	.	4B/ 4g	.	4d/ 4b	.	4ddd/)	.
4r	.	4r	.	4r	.	4r	.	8.dd/L	.
.	.	.	.	.	.	.	.	16dd/Jk	.
4r	.	4r	.	4r	.	8.d/L	.	(<4ddd^>/	.
.	.	.	.	.	.	16d/Jk	.	.	.
4D\	.	4D\	.	4B/ 4g	.	4dd/	.	8ccc/L	.
.	.	.	.	.	.	.	.	8bb/J	.
=96	=96	=96	=96	=96	=96	=96	=96	=96	=96
4D\	.	4D\	.	4B/ 4g#X	.	4dd/	.	4ddd/)	.
4r	.	4r	.	4r	.	4r	.	8.dd/L	.
.	.	.	.	.	.	.	.	16dd/Jk	.
4r	.	4r	.	4r	.	8.d/L	.	4ddd^>/	.
.	.	.	.	.	.	16d/Jk	.	.	.
4D\	.	4D\	.	4B/ 4g#	.	4ffn/	.	(<8ccc/L	.
.	.	.	.	.	.	.	.	8bb/J	.
=97	=97	=97	=97	=97	=97	=97	=97	=97	=97
4C\	.	4C\	.	4A/ 4a	.	4ee/	.	4eee/)	.
4r	.	4C\	.	4A/	.	4e/	.	4a/	.
!	!	!	!	!	!	!	!	!LO:TUP:b:problem:klamra łukowa	!LO:HP:a
2r	.	4E\	.	4G#X/	.	4d/	.	12b/L	<
.	.	.	.	.	.	.	.	12a/	.
.	.	.	.	.	.	.	.	12b/J	.
.	.	4AA\	.	4A/	.	4c/	.	4cc/	[[
!!LO:LB:g=original
=98	=98	=98	=98	=98	=98	=98	=98	=98	=98
1r	.	4GG\	.	4B/	.	4fn/	.	4dd/	.
.	.	4C\	.	4c/	.	4e/	.	4ee/	.
!	!	!	!	!	!	!	!	!LO:TUP:a:problem:klamra łukowa	!
.	.	4BB\	.	4d#X/	.	4B/ 4a	.	12ff#\L	.
.	.	.	.	.	.	.	.	12ee\	.
.	.	.	.	.	.	.	.	12ff#\J	.
!	!	!	!	!	!	!	!	!LO:TUP:a:problem:klamra łukowa	!
.	.	4E\	.	4e/	.	4B/ 4g	.	12gg\L	.
.	.	.	.	.	.	.	.	12ff#\	.
.	.	.	.	.	.	.	.	12gg\J	.
=99	=99	=99	=99	=99	=99	=99	=99	=99	=99
!	!	!	!	!	!	!	!	!LO:TUP:a:problem:klamra łukowa	!
4D\	.	4D\	.	4f#/	.	4dn/ 4cc	.	12aa\L	.
.	.	.	.	.	.	.	.	12gg\	.
.	.	.	.	.	.	.	.	12aa\J	.
!	!	!	!	!	!	!	!	!LO:TUP:a:problem:klamra łukowa	!
4G\	.	4G\	.	4g/	.	4d/ 4b	.	12bb\L	.
.	.	.	.	.	.	.	.	12aa\	.
.	.	.	.	.	.	.	.	12bb\J	.
4E\	.	4E\	.	4c/	.	2G/ 2g	.	4ccc\	.
4D\	.	4D\	.	4d/	.	.	.	4bb\	.
=100	=100	=100	=100	=100	=100	=100	=100	=100	=100
!	!	!	!	!	!	!	!	!LO:TUP:a:problem:klamra łukowa	!
4C\	.	4C\	.	4e/	.	4G/ 4g	.	12ccc\L	.
.	.	.	.	.	.	.	.	12bb\	.
.	.	.	.	.	.	.	.	12ccc\J	.
4BB\	.	4BB\	.	4d/	.	4G/ 4g	.	4ddd\	.
!	!	!	!	!	!	!	!	!LO:TUP:a:problem:klamra łukowa	!
4AA\	.	4AA\	.	4c\	.	4e/ 4cc	.	12eee\L	.
.	.	.	.	.	.	.	.	12ddd\	.
.	.	.	.	.	.	.	.	12eee\J	.
4D\	.	4D\	.	4A\	.	4f#/ 4a	.	4fff#\	.
=101	=101	=101	=101	=101	=101	=101	=101	=101	=101
4GG\	.	4GG\	.	8B\L	.	4G/ 4b	.	4gg\ 4ggg	.
.	.	.	.	(>8d\	<	.	.	.	.
4D\	.	4D\	.	8f#\	.	2.d\	.	4ff#\ 4fff#	.
.	.	.	.	8g\J	.	.	.	.	.
4GG\	.	4GG\	.	4cc\	.	.	.	4ee\ 4eee	.
!	!	!	!	!	!	!	!	!LO:TUP:a:problem:klamra łukowa	!
4D\	.	4D\	.	8b\L	[	.	.	12ff#\L 12fff#	.
.	.	.	.	.	.	.	.	12dd\ 12ddd	.
.	.	.	.	8a#X\J)	.	.	.	.	.
.	.	.	.	.	.	.	.	12ff#\J 12fff#	.
=102	=102	=102	=102	=102	=102	=102	=102	=102	=102
4GG\	.	4GG\	.	4b\	.	4G/ 4b	.	4gg\ 4ggg	.
2D\	.	2D\	.	4d\	.	8f#/L	.	8ff#\L 8fff#	.
.	.	.	.	.	.	8g/J	.	8ee\J 8eee	.
.	.	.	.	2A/ 2e@	.	4cc/	.	(>4.dd\ 4.ddd	.
4D\	.	4D\	.	.	.	8b/L	.	.	.
.	.	.	.	.	.	8a/J	.	8ccc\	.
=103	=103	=103	=103	=103	=103	=103	=103	=103	=103
4GG\	.	4GG\	.	4d@/	.	4g/	.	8bb\L)	.
.	.	.	.	.	.	.	.	(>8dd\	<
4D\	.	4D\	.	4D@/ 4d	.	4f#/	.	8ff#\	.
.	.	.	.	.	.	.	.	8gg\J	.
4GG\	.	4GG\	.	2D@/ 2c	.	4e/	.	4ccc^>\)	.
!	!	!	!	!	!	!LO:TUP:b:problem:klamra łukowa	!	!	!
4D\	.	4D\	.	.	.	12f#/L	.	8bb\L	[
.	.	.	.	.	.	12d/	.	.	.
.	.	.	.	.	.	.	.	8aa#X\J	.
.	.	.	.	.	.	12f#/J	.	.	.
!!LO:LB:g=original
=104	=104	=104	=104	=104	=104	=104	=104	=104	=104
4GG\	.	4GG\	.	4D@/ 4B	.	4g/	.	8bb\L	.
.	.	.	.	.	.	.	.	(>8dd\	.
4D\	.	4D\	.	4D@/ 4d	.	4f#/	.	8ff#\	.
.	.	.	.	.	.	.	.	8gg\J	.
4GG\	.	4GG\	.	2D@/ 2c	.	4e/	.	4ccc\	.
!	!	!	!	!	!	!LO:TUP:b:problem:klamra łukowa	!	!	!
4D\	.	4D\	.	.	.	12f#/L	.	8bb\L	.
.	.	.	.	.	.	12d/	.	.	.
.	.	.	.	.	.	.	.	8aa#X\J)	.
.	.	.	.	.	.	12f#/J	.	.	.
=105	=105	=105	=105	=105	=105	=105	=105	=105	=105
2GG\	.	2GG\	.	2D/ 2B	.	2g/	.	2bb/	.
4BB@/	.	4BB@/	.	4G/ 4g	.	4d#X/ 4dd#X	.	4b/ 4bb	.
4C\	.	4C\	.	4G/ 4g	.	4e/ 4ee	.	4b/ 4bb	.
=106	=106	=106	=106	=106	=106	=106	=106	=106	=106
2GG;\	.	2GG;\ 2D@	.	2B@;>/ 2g	.	2dn;>/ 2ddn	.	2b;>/ 2bb	.
2r	.	2r	.	2r	.	2r	.	2r	.
!!LO:PB:g=original
==	==	==	==	==	==	==	==	==	==
*-	*-	*-	*-	*-	*-	*-	*-	*-	*-
!!!system-decoration: [(s1,s2,s3,s4,s5)]
!!!RDF**kern: < = below
!!!RDF**kern: > = above
!!!RDF**kern: | = vertical stroke
!!!RDF**kern: @ = marked note, color=grey
!!!ENC: Anastazja Marusiak
!!!END: 2021-11-15
!!!ENC: Marta Chmielewska
!!!END: 2021-11-18
